src/lib/packages/icons/src/assets/filled/sign-direction-right.svg

<svg width="24" height="24" viewBox="0 0 24 24" fill="none" xmlns="http://www.w3.org/2000/svg">
<path d="M19.707 9.70703L16.853 12.561C16.572 12.842 16.19 13 15.792 13H5.845C4.614 13 3.99899 12.3851 3.99899 11.1541V6.84595C3.99899 5.61495 4.614 5 5.845 5H10.249V3C10.249 2.59 10.589 2.25 10.999 2.25C11.409 2.25 11.749 2.59 11.749 3V5H15.792C16.19 5 16.571 5.15796 16.853 5.43896L19.707 8.29297C20.098 8.68297 20.098 9.31703 19.707 9.70703ZM14 20.25H11.75V14.5H10.25V20.25H8C7.586 20.25 7.25 20.586 7.25 21C7.25 21.414 7.586 21.75 8 21.75H14C14.414 21.75 14.75 21.414 14.75 21C14.75 20.586 14.414 20.25 14 20.25Z" fill="currentColor"/>
</svg>

<svg xmlns="http://www.w3.org/2000/svg" width="24" height="24" fill="none"><path fill="currentColor" d="m19.707 9.707-2.854 2.854a1.5 1.5 0 0 1-1.061.439H5.845c-1.231 0-1.846-.615-1.846-1.846V6.846C3.999 5.615 4.614 5 5.845 5h4.404V3c0-.41.34-.75.75-.75s.75.34.75.75v2h4.043c.398 0 .779.158 1.061.439l2.854 2.854a.999.999 0 0 1 0 1.414ZM14 20.25h-2.25V14.5h-1.5v5.75H8a.75.75 0 0 0 0 1.5h6a.75.75 0 0 0 0-1.5Z"/></svg>
